gama.ui.shared/icons_svg/light/display/zoom.fit.svg

<svg height="25" viewBox="-432.5 -3768.755 25 25" width="25" xmlns="http://www.w3.org/2000/svg"><g fill="none"><circle cx="-420" cy="-3756.255" fill="#fff" r="12"/><circle cx="-420" cy="-3756.255" r="12" stroke="#000" stroke-linecap="round" stroke-linejoin="round" stroke-width=".25"/><path d="m-422.88235-3753.9217h-3.72145c-.2175 0-.38844-.1711-.38844-.3888 0-.2178.17094-.3889.38844-.3889h4.6615c.21756 0 .3885.1711.3885.3889v4.6665c0 .218-.17094.389-.3885.389-.2175 0-.38844-.171-.38844-.389v-3.7254l-4.00112 3.9977c-.15538.1557-.39624.1557-.55161 0-.15538-.1553-.15538-.3966 0-.5523l4.00112-4.0054zm5.76475-4.6666h3.7214c.21754 0 .38846.1713.38846.3889 0 .2177-.17092.3889-.38846.3889h-4.6615c-.21753 0-.38845-.1712-.38845-.3889v-4.6666c0-.218.17092-.389.38845-.389.21754 0 .38846.171.38846.389v3.7255l4.00114-3.9978c.15537-.1557.3962-.1557.5516 0 .1554.1555.1554.3966 0 .5523l-4.0011 4.0055z" fill="#66727e"/></g></svg>

<?xml version="1.0" encoding="UTF-8" standalone="no"?>
<!DOCTYPE svg PUBLIC "-//W3C//DTD SVG 1.1//EN" "http://www.w3.org/Graphics/SVG/1.1/DTD/svg11.dtd">
<svg version="1.1" xmlns="http://www.w3.org/2000/svg" xmlns:xl="http://www.w3.org/1999/xlink" xmlns:dc="http://purl.org/dc/elements/1.1/" viewBox="-432.5001 -3768.755 25.000035 25" width="25.000035" height="25">
  <defs/>
  <g id="SOURCES" stroke-dasharray="none" fill="none" stroke="none" fill-opacity="1" stroke-opacity="1">
    <title>SOURCES</title>
    <g id="SOURCES_Calque_2">
      <title>Calque 2</title>
      <g id="Graphic_8986">
        <circle cx="-420.00006" cy="-3756.255" r="12.0000278184556" fill="white"/>
        <circle cx="-420.00006" cy="-3756.255" r="12.0000278184556" stroke="black" stroke-linecap="round" stroke-linejoin="round" stroke-width=".2500004"/>
      </g>
      <g id="Group_8989">
        <title>collapse</title>
        <g id="Graphic_8990">
          <path d="M -422.88235 -3753.9217 L -426.6038 -3753.9217 C -426.8213 -3753.9217 -426.99224 -3754.0928 -426.99224 -3754.3105 C -426.99224 -3754.5283 -426.8213 -3754.6994 -426.6038 -3754.6994 L -421.9423 -3754.6994 C -421.72474 -3754.6994 -421.5538 -3754.5283 -421.5538 -3754.3105 L -421.5538 -3749.644 C -421.5538 -3749.426 -421.72474 -3749.255 -421.9423 -3749.255 C -422.1598 -3749.255 -422.33074 -3749.426 -422.33074 -3749.644 L -422.33074 -3753.3694 L -426.33186 -3749.3717 C -426.48724 -3749.216 -426.7281 -3749.216 -426.88347 -3749.3717 C -427.03885 -3749.527 -427.03885 -3749.7683 -426.88347 -3749.924 L -422.88235 -3753.9294 Z M -417.1176 -3758.5883 L -413.3962 -3758.5883 C -413.17866 -3758.5883 -413.00774 -3758.417 -413.00774 -3758.1994 C -413.00774 -3757.9817 -413.17866 -3757.8105 -413.3962 -3757.8105 L -418.0577 -3757.8105 C -418.27523 -3757.8105 -418.44615 -3757.9817 -418.44615 -3758.1994 L -418.44615 -3762.866 C -418.44615 -3763.084 -418.27523 -3763.255 -418.0577 -3763.255 C -417.84016 -3763.255 -417.66924 -3763.084 -417.66924 -3762.866 L -417.66924 -3759.1405 L -413.6681 -3763.1383 C -413.51273 -3763.294 -413.2719 -3763.294 -413.1165 -3763.1383 C -412.9611 -3762.9828 -412.9611 -3762.7417 -413.1165 -3762.586 L -417.1176 -3758.5805 Z" fill="#66727e"/>
        </g>
      </g>
    </g>
  </g>
</svg>
